T: 250 To Vigo
M: 4/4
L: 1/8
K: Bmin
fBBA BdFG-|GBdB Acec|fBBA BdFG-|GBBd cBB2|
fBBA BdFG-|GBdB Ac(3efg|f2BA BdFG-|GBfe defg|
affe decd-|decd ed(3cBA|affe decd-|dfab fee2|
affe decd-|decd ed(3cBA|f2BA Bdcd-|decd ed(3cBA||
% the middle 8 bit
cFFc dGGd|cFFe dBB2|cFFc dGG2|1dfec dBB2:|2dfec defg|
% ... and 2nd part variation
affd caBc-|cABc dcBA|affd caBc-|cfab fee2|
